X:1
T:Българи от Старо Време 
T:Нека се помни (Хор и Соло)
T:Асен К.Стоянов
%%score [ 1 2 3 4 ]
L:1/8
Q:1/4=71
M:5/4
K:C
V:1 treble nm="Soprano" snm="S."
V:2 treble nm="Alto" snm="A."
V:3 treble-8 nm="Tenor" snm="T."
V:4 bass nm="Bass" snm="B."
V:1
"^Adagio" E^G/A/ B4 B4 | cB A3 B/4A/4^G/4A/4 B4 | E^G/A/ B4 B3 d | cB A3 B/4A/4^G/4A/4 B4 | %4
 BA/^G/ A4 G4 |[M:3/4] FE D4 |[M:4/4] z DEF BA^GA |[M:2/4] G2{/FG} F2 |[M:3/4] E6 | %9
[M:5/4] BA/^G/ A4 G4 |[M:3/4] FE D4 |[M:4/4] z DEF BA^GA |[M:2/4] G2{/FG} F2 |[M:3/4] E4 z2 | %14
[M:2/4] dB/c/ d2- | dc/B/ c2- | cB/A/ ^GA | B>c d/c/d/e/ | fd/e/ [fa]2- | [fa][eg]/[df]/ [eg]2- | %20
 [eg]f/e/ dc | B2 z2 | %22
[M:5/4]"_Не-ка се по-мни,     не-ка да   се                  знай,  сър-це ю наш-ко             във гърди не                 трай,   на таз ро-би-я""^Solo" E^G/A/ B4 B4 | %23
 cB A3 B/4A/4^G/4A/4 B4 | E^G/A/ B4 B3 d | cB A3 B/4A/4^G/4A/4 B4 |"^Tutti" BA/^G/ A4 G4 | %27
[M:3/4] FE D4 |[M:4/4] z DEF BA^GA |[M:2/4] G2{/FG} F2 |[M:3/4] E6 |[M:5/4] BA/^G/ A4 G4 | %32
[M:3/4] FE D4 |[M:4/4] z DEF BA^GA | Bd !fermata!g4 f2 | e8 | [e^f]8 | !fermata![e^g]8 |] %38
V:2
"^На -шата мла-дост      вех-не   нас     след            час,        тъж-ни са дни - те,    ах     що ли   ча  -     ка                нас" EE/F/ ^G4 G4 | %1
 A^G F3 F/4E/4D/4E/4 E4 | EE/F/ ^G4 G3 B | A^G F3 F/4E/4D/4E/4 E4 | %4
"^В тежка ро-би  -       я                    тъ-нем в мрак                            от ний-де    не проблясва             слън-чев                 зрак" ^GF/E/ F4 E4 | %5
[M:3/4] DC D4 |[M:4/4] z DEF DCB,A, |[M:2/4] B,2{/A,B,} A,2 |[M:3/4] ^G,6 | %9
[M:5/4]"^В тежка ро-би  - я        тъ-нем в мрак                        от ний-де   не проблясва         слън-чев             зрак               Наш-те момин-" ^GF/E/ F4 E4 | %10
[M:3/4] DC D4 |[M:4/4] z DEF DCB,A, |[M:2/4] B,2{/A,B,} A,2 |[M:3/4] ^G,4 z2 |[M:2/4] B^G/A/ B2- | %15
"^ски сърца          във копнеж туп -   тят  встрадат клети,     наш-те мла-деж            ки мечти                 са не сбъднат сън." BA/^G/ A2- | %16
 A^G/F/ EF | ^G>A B/A/B/c/ | dB/c/ d2- | dc/B/ c2- | cd/c/ BA | ^G2 z2 |[M:5/4] z10 | z10 | z10 | %25
 z10 | ^GF/E/ F4 E4 | %27
[M:3/4]"^И-де край,                         ще грей-не сво-бо-да-та        в ро-ден             край.            На таз ро-би-я               и-де край," DC D4 | %28
[M:4/4] z DEF DCB,A, |[M:2/4] B,2{/A,B,} A,2 |[M:3/4] ^G,6 |[M:5/4] ^GF/E/ F4 E4 |[M:3/4] DC D4 | %33
[M:4/4] z"^ще грей-не   сво - бо - да -та          в ро-ден край!      Ах,            сво                    -           бо                        -да!" DEF FEDE | %34
 GB !fermata![Bd]4 [Ac]2 | [^GB]8 | [Ac]8 | !fermata![^GB]8 |] %38
V:3
"^На -шата мла-дост      вех-не   нас     след            час,        тъж-ни са дни - те,    ах     що ли   ча  -     ка                нас" ^GB/c/ B4 B4 | %1
 AB c3 d/4c/4B/4d/4 ^G4 | ^GB/c/ B4 B4 | AB c3 d/4c/4B/4d/4 ^G4 | %4
"^В тежка ро-би  -       я                    тъ-нем в мрак                            от ний-де    не проблясва             слън-чев                 зрак" dc/B/ c4 B4 | %5
[M:3/4] AA A4 |[M:4/4] z DEF dcBc |[M:2/4] d2{/cd} c2 |[M:3/4] B6 | %9
[M:5/4]"^В тежка ро-би  - я        тъ-нем в мрак                        от ний-де   не проблясва         слън-чев             зрак               Наш-те момин-" dc/B/ c4 B4 | %10
[M:3/4] AA A4 |[M:4/4] z DEF dcBc |[M:2/4] d2{/cd} c2 |[M:3/4] B4 z2 |[M:2/4] ^GB/c/ d2- | %15
"^ски сърца          във копнеж туп -   тят  встрадат клети,     наш-те мла-деж            ки мечти                 са не сбъднат сън." de/d/ e2- | %16
 ed/c/ Bc | d>e f/e/f/^g/ | af/^g/ a2- | a=g/f/ g2- | gf/e/ dc | ^d2 z2 | %22
[M:5/4]"^Не-ка се по-мни,     не-ка да   се                  знай,  сър-це ю наш-ко             във гърди не                 трай,   на таз ро-би-я" ^GB/c/ B4 B4 | %23
 AB c3 d/4c/4B/4d/4 ^G4 | ^GB/c/ B4 B4 | AB c3 d/4c/4B/4d/4 ^G4 | dc/B/ c4 B4 | %27
[M:3/4]"^И-де край,                         ще грей-не сво-бо-да-та        в ро-ден             край.            На таз ро-би-я               и-де край," AA A4 | %28
[M:4/4] z DEF dcBc |[M:2/4] d2{/cd} c2 |[M:3/4] B6 |[M:5/4] dc/B/ c4 B4 |[M:3/4] AA A4 | %33
[M:4/4] z"^ще грей-не   сво - бо - да -та          в ро-ден край!      Ах,            сво                    -           бо                        -да!" DEF dcBc | %34
 d[cd] !fermata![Bd]4 [cf]2 | [Be]8 | [e^f]8 | !fermata![e^g]8 |] %38
V:4
"^На -шата мла-дост      вех-не   нас     след            час,        тъж-ни са дни - те,             що ли   ча  -     ка                нас" E,E,/E,/ E,4 E,4 | %1
 E,E, E,3 E, E,4 | E,E,/E,/ E,4 E,4 | E,E, E,3 E, E,4- | %4
"^Втеж - ка  ро-би - я              тъ-нем в мрак           от ний-де            слън-чев              зрак" E,4 z4 z2 | %5
[M:3/4] D,E, F,E, D,C, |[M:4/4] B,,A,, ^G,,2 z A,DC |[M:2/4] G,2{/F,G,} F,2 |[M:3/4] E,6- | %9
[M:5/4]"^Втеж - ка  ро-би - я         тъ-нем в мрак       от ний-де          слън-чев            зрак                Наш-те момин-" E,4 z2 z4 | %10
[M:3/4] D,E, F,E, D,C, |[M:4/4] B,,A,, ^G,,2 z A,DC |[M:2/4] G,2{/F,G,} F,2 |[M:3/4] E,4 z2 | %14
[M:2/4] E,E,/E,/ E,2- | %15
"^ски сърца          във копнеж туп -   тят  встрадат клети,     наш-те мла-деж            ки мечти                 са не сбъднат сън." E,E,/E,/ E,2- | %16
 E,^G,/A,/ G,A, | B,>A, B,/C/D/E/ | FD/E/ [DF]2- | [DF][CE]/[B,D]/ [CE]2- | [CE]D/C/ B,A, | %21
 B,2 z2 |[M:5/4] z10 | z10 | z10 | z10 |"^На таз ро-би-я" E,E,/E,/ E,4 E,4 | %27
[M:3/4]"^на     таз ро-би-я           и-де край             ще грей-не      в ро-ден             край.          На таз ро-би-я               на   таз ро-би-я" D,E, F,E, D,C, | %28
[M:4/4] B,,A,, ^G,,2 z A,DC |[M:2/4] G,2{/F,G,} F,2 |[M:3/4] E,6 |[M:5/4] E,E,/E,/ E,4 E,4 | %32
[M:3/4] D,E, F,E, D,C, | %33
[M:4/4]"^и-де     край.                 На  таз   ро  -   би  -   я    край!       Ах,           сво                        -       бо                          -   да!" B,,A,, ^G,,2 z A,DC | %34
 B,A, !fermata!G,4 A,2 | [E,^G,]8 | [A,C]8 | !fermata![E,B,]8 |] %38

